; generated by PrusaSlicer 2.9.4 on 2025-11-12 at 03:15:37 UTC

; 

; external perimeters extrusion width = 0.45mm
; perimeters extrusion width = 0.45mm
; infill extrusion width = 0.45mm
; solid infill extrusion width = 0.45mm
; top infill extrusion width = 0.40mm
; first layer extrusion width = 0.70mm

M104 S200 ; set temperature
;TYPE:Custom
G28 ; home all axes
G1 Z5 F5000 ; lift nozzle
M109 S200 ; set temperature and wait for it to be reached
G21 ; set units to millimeters
G90 ; use absolute coordinates
M82 ; use absolute distances for extrusion
G92 E0
; Filament gcode
M107
;LAYER_CHANGE
;Z:0.35
;HEIGHT:0.35
G1 E-2 F2400
G92 E0
G1 Z.35 F7800
G1 X87.84 Y87.8
G1 E2 F2400
;TYPE:Skirt/Brim
;WIDTH:0.7
G1 F1800
G1 X88.792 Y86.847 E2.12249
G1 X89.825 Y85.994 E2.24431
G1 X90.948 Y85.28 E2.36532
G1 X94.185 Y83.694 E2.69309
G1 X95.94 Y83.203 E2.8588
G1 X98.664 Y82.771 E3.10959
G1 X100.145 Y82.689 E3.24446
G1 X101.329 Y82.77 E3.35237
G1 X104.053 Y83.201 E3.60314
G1 X105.353 Y83.536 E3.72521
G1 X106.588 Y84.024 E3.84596
G1 X109.046 Y85.276 E4.09679
G1 X110.177 Y85.995 E4.21865
G1 X111.207 Y86.846 E4.34014
G1 X113.154 Y88.793 E4.59051
G1 X114.009 Y89.828 E4.71258
G1 X114.723 Y90.953 E4.83374
G1 X116.306 Y94.185 E5.16098
G1 X116.798 Y95.945 E5.32715
G1 X117.229 Y98.665 E5.57756
G1 X117.311 Y100.149 E5.71271
G1 X117.23 Y101.329 E5.82026
G1 X116.799 Y104.053 E6.07103
G1 X116.463 Y105.355 E6.1933
G1 X115.973 Y106.594 E6.31445
G1 X114.723 Y109.047 E6.56479
G1 X114.005 Y110.177 E6.68653
G1 X113.154 Y111.207 E6.80802
G1 X111.207 Y113.154 E7.05839
G1 X110.173 Y114.008 E7.18033
G1 X109.047 Y114.723 E7.30161
G1 X105.815 Y116.306 E7.62885
G1 X104.055 Y116.798 E7.79502
G1 X101.335 Y117.229 E8.04543
G1 X99.851 Y117.311 E8.18058
G1 X98.671 Y117.23 E8.28813
G1 X95.947 Y116.799 E8.5389
G1 X94.645 Y116.463 E8.66117
G1 X93.406 Y115.973 E8.78232
G1 X90.953 Y114.723 E9.03266
G1 X89.82 Y114.003 E9.15473
G1 X88.793 Y113.154 E9.27589
G1 X86.846 Y111.207 E9.52626
G1 X85.994 Y110.175 E9.64795
G1 X85.28 Y109.052 E9.76896
G1 X83.694 Y105.815 E10.09673
G1 X83.203 Y104.06 E10.26244
G1 X82.771 Y101.336 E10.51323
G1 X82.689 Y99.851 E10.64847
G1 X82.77 Y98.671 E10.75602
G1 X83.201 Y95.947 E11.00679
G1 X83.535 Y94.649 E11.12866
G1 X84.024 Y93.412 E11.24961
G1 X85.276 Y90.954 E11.50044
G1 X85.995 Y89.823 E11.6223
G1 X86.842 Y88.798 E11.74321
G1 X87.797 Y87.842 E11.86608
G1 E9.86608 F2400
G92 E0
G92 E0
G1 X109.042 Y102.939 F7800
G1 E2 F2400
;TYPE:Perimeter
;WIDTH:0.521481
G1 F1800
G1 X108.674 Y102.833 E2.02487
G1 E.02487 F2400
G92 E0
G1 X107.663 Y105.571 F7800
G1 E2 F2400
;WIDTH:0.494161
G1 F1800
G1 X107.376 Y105.361 E2.02169
G1 E.02169 F2400
G92 E0
G1 X102.926 Y109.011 F7800
G1 E2 F2400
;WIDTH:0.494163
G1 F1800
G1 X102.817 Y108.673 E2.02166
G1 E.02166 F2400
G92 E0
G1 X99.998 Y109.477 F7800
G1 E2 F2400
;WIDTH:0.488779
G1 F1800
G1 X100 Y109.155 E2.01938
G1 E.01938 F2400
G92 E0
G1 X97.061 Y109.042 F7800
G1 E2 F2400
;WIDTH:0.521481
G1 F1800
G1 X97.167 Y108.674 E2.02487
G1 E.02487 F2400
G92 E0
G1 X94.429 Y107.663 F7800
G1 E2 F2400
;WIDTH:0.494157
G1 F1800
G1 X94.639 Y107.376 E2.02168
G1 E.02168 F2400
G92 E0
G1 X90.989 Y102.926 F7800
G1 E2 F2400
;WIDTH:0.494167
G1 F1800
G1 X91.327 Y102.817 E2.02166
G1 E.02166 F2400
G92 E0
G1 X90.523 Y99.998 F7800
G1 E2 F2400
;WIDTH:0.494643
G1 F1800
G1 X90.898 Y100 E2.02289
G1 E.02289 F2400
G92 E0
G1 X90.958 Y97.061 F7800
G1 E2 F2400
;WIDTH:0.499801
G1 F1800
G1 X91.16 Y97.12 E2.013
;WIDTH:0.527265
G1 X91.362 Y97.178 E2.02683
G1 E.02683 F2400
G92 E0
G1 X92.337 Y94.429 F7800
G1 E2 F2400
;WIDTH:0.498511
G1 F1800
G1 X92.649 Y94.659 E2.02388
G1 E.02388 F2400
G92 E0
G1 X97.074 Y90.989 F7800
G1 E2 F2400
G1 F1800
G1 X97.192 Y91.358 E2.02387
G1 E.02387 F2400
G92 E0
G1 X100.002 Y90.523 F7800
G1 E2 F2400
;WIDTH:0.494643
G1 F1800
G1 X100 Y90.898 E2.02289
G1 E.02289 F2400
G92 E0
G1 X102.939 Y90.958 F7800
G1 E2 F2400
;WIDTH:0.499799
G1 F1800
G1 X102.88 Y91.16 E2.013
;WIDTH:0.527261
G1 X102.822 Y91.362 E2.02683
G1 E.02683 F2400
G92 E0
G1 X105.571 Y92.336 F7800
G1 E2 F2400
;WIDTH:0.498507
G1 F1800
G1 X105.341 Y92.649 E2.02393
G1 E.02393 F2400
G92 E0
G1 X109.011 Y97.074 F7800
G1 E2 F2400
G1 F1800
G1 X108.642 Y97.192 E2.02387
G1 E.02387 F2400
G92 E0
G1 X109.155 Y100 F7800
G1 E2 F2400
;WIDTH:0.488779
G1 F1800
G1 X109.477 Y100.002 E2.01938
G1 X108.217 Y99.707 F7800
;WIDTH:0.7
G1 F1800
G1 X108.439 Y99.888 E2.04543
G1 X108.687 Y100.007 E2.07044
G1 X108.426 Y100.111 E2.09599
G1 X108.036 Y100.441 E2.14244
G1 X107.835 Y100.76 E2.17672
G1 X107.719 Y101.057 E2.20571
G1 X107.676 Y101.566 E2.25216
G1 X107.732 Y101.923 E2.28502
G1 X107.935 Y102.349 E2.32793
G1 X108.246 Y102.678 E2.3691
G1 X107.921 Y102.735 E2.3991
G1 X107.412 Y102.965 E2.44989
G1 X107.018 Y103.392 E2.50272
G1 X106.861 Y103.703 E2.5344
G1 X106.757 Y104.207 E2.58119
G1 X106.792 Y104.524 E2.61019
G1 X107.006 Y105.092 E2.66538
G1 X106.72 Y105.042 E2.69178
G1 X106.436 Y105.044 E2.7176
G1 X105.944 Y105.186 E2.76416
G1 X105.529 Y105.471 E2.80994
G1 X105.223 Y105.871 E2.85573
G1 X105.072 Y106.303 E2.89734
G1 X105.04 Y106.656 E2.92957
G1 X105.114 Y107.04 E2.96513
G1 X104.974 Y106.934 E2.9811
G1 X104.793 Y106.867 E2.99865
G1 X104.245 Y106.755 E3.04951
G1 X103.722 Y106.859 E3.098
G1 X103.387 Y107.019 E3.13176
G1 X103.011 Y107.354 E3.17755
G1 X102.836 Y107.652 E3.20897
G1 X102.675 Y108.238 E3.26423
G1 X102.473 Y108.029 E3.29066
G1 X102.072 Y107.797 E3.33279
G1 X101.726 Y107.685 E3.36586
G1 X101.208 Y107.698 E3.41298
G1 X100.873 Y107.778 E3.4443
G1 X100.436 Y108.038 E3.49054
G1 X100.112 Y108.439 E3.53742
G1 X99.993 Y108.687 E3.56243
G1 X99.95 Y108.564 E3.57428
G1 X99.763 Y108.247 E3.60775
G1 X99.389 Y107.91 E3.65353
G1 X98.859 Y107.706 E3.70517
G1 X98.525 Y107.665 E3.73577
G1 X98.077 Y107.732 E3.77696
G1 X97.651 Y107.935 E3.81987
G1 X97.322 Y108.246 E3.86104
G1 X97.265 Y107.921 E3.89104
G1 X97.035 Y107.412 E3.94183
G1 X96.597 Y107.01 E3.99589
G1 X96.297 Y106.861 E4.02635
G1 X95.793 Y106.757 E4.07314
G1 X95.476 Y106.792 E4.10214
G1 X94.908 Y107.006 E4.15733
G1 X94.958 Y106.72 E4.18373
G1 X94.956 Y106.436 E4.20955
G1 X94.814 Y105.944 E4.25611
G1 X94.529 Y105.529 E4.30189
G1 X94.129 Y105.223 E4.34768
G1 X93.697 Y105.071 E4.38932
G1 X93.344 Y105.04 E4.42154
G1 X92.96 Y105.114 E4.4571
G1 X93.066 Y104.974 E4.47307
G1 X93.133 Y104.793 E4.49062
G1 X93.245 Y104.245 E4.54148
G1 X93.141 Y103.722 E4.58997
G1 X92.981 Y103.387 E4.62373
G1 X92.646 Y103.011 E4.66952
G1 X92.348 Y102.836 E4.70094
G1 X91.762 Y102.674 E4.75622
G1 X91.971 Y102.473 E4.78259
G1 X92.203 Y102.072 E4.82472
G1 X92.315 Y101.726 E4.85779
G1 X92.302 Y101.208 E4.90491
G1 X92.23 Y100.892 E4.93438
G1 X91.968 Y100.444 E4.98157
G1 X91.561 Y100.112 E5.02933
G1 X91.313 Y99.993 E5.05434
G1 X91.574 Y99.889 E5.07989
G1 X91.964 Y99.559 E5.12634
G1 X92.165 Y99.24 E5.16062
G1 X92.281 Y98.943 E5.18961
G1 X92.324 Y98.434 E5.23606
G1 X92.268 Y98.077 E5.26892
G1 X92.065 Y97.651 E5.31183
G1 X91.754 Y97.322 E5.353
G1 X92.079 Y97.265 E5.383
G1 X92.588 Y97.035 E5.43379
G1 X92.982 Y96.608 E5.48662
G1 X93.139 Y96.297 E5.5183
G1 X93.243 Y95.793 E5.56509
G1 X93.208 Y95.476 E5.59409
G1 X92.994 Y94.908 E5.64928
G1 X93.28 Y94.958 E5.67568
G1 X93.564 Y94.956 E5.7015
G1 X94.056 Y94.814 E5.74806
G1 X94.471 Y94.529 E5.79384
G1 X94.777 Y94.129 E5.83963
G1 X94.929 Y93.697 E5.88127
G1 X94.96 Y93.344 E5.91349
G1 X94.886 Y92.96 E5.94905
G1 X95.026 Y93.066 E5.96502
G1 X95.207 Y93.133 E5.98257
G1 X95.755 Y93.245 E6.03343
G1 X96.278 Y93.141 E6.08192
G1 X96.613 Y92.981 E6.11568
G1 X96.989 Y92.646 E6.16147
G1 X97.164 Y92.348 E6.19289
G1 X97.326 Y91.762 E6.24817
G1 X97.527 Y91.971 E6.27454
G1 X97.928 Y92.203 E6.31667
G1 X98.274 Y92.315 E6.34974
G1 X98.792 Y92.302 E6.39686
G1 X99.108 Y92.23 E6.42633
G1 X99.556 Y91.968 E6.47352
G1 X99.888 Y91.561 E6.52128
G1 X100.007 Y91.313 E6.54629
G1 X100.111 Y91.574 E6.57184
G1 X100.441 Y91.964 E6.61829
G1 X100.76 Y92.165 E6.65257
G1 X101.057 Y92.281 E6.68156
G1 X101.566 Y92.324 E6.72801
G1 X101.923 Y92.268 E6.76087
G1 X102.349 Y92.065 E6.80378
G1 X102.678 Y91.754 E6.84495
G1 X102.735 Y92.079 E6.87495
G1 X102.965 Y92.588 E6.92574
G1 X103.392 Y92.982 E6.97857
G1 X103.703 Y93.139 E7.01025
G1 X104.207 Y93.243 E7.05704
G1 X104.524 Y93.208 E7.08604
G1 X105.092 Y92.994 E7.14123
G1 X105.042 Y93.28 E7.16763
G1 X105.044 Y93.564 E7.19345
G1 X105.186 Y94.056 E7.24001
G1 X105.471 Y94.471 E7.28579
G1 X105.871 Y94.777 E7.33158
G1 X106.303 Y94.929 E7.37322
G1 X106.656 Y94.96 E7.40544
G1 X107.04 Y94.886 E7.441
G1 X106.934 Y95.026 E7.45697
G1 X106.867 Y95.207 E7.47452
G1 X106.755 Y95.755 E7.52538
G1 X106.859 Y96.278 E7.57387
G1 X107.019 Y96.613 E7.60763
G1 X107.354 Y96.989 E7.65342
G1 X107.652 Y97.164 E7.68484
G1 X108.238 Y97.326 E7.74012
G1 X108.029 Y97.527 E7.76649
G1 X107.797 Y97.928 E7.80862
G1 X107.685 Y98.274 E7.84169
G1 X107.698 Y98.792 E7.88881
G1 X107.77 Y99.108 E7.91828
G1 X108.032 Y99.556 E7.96547
G1 X108.171 Y99.669 E7.98176
G1 X108.63 Y99.237 F7800
;TYPE:External perimeter
G1 F1800
G1 X108.801 Y99.378 E8.00191
G1 X109.003 Y99.449 E8.02138
G1 X109.49 Y99.489 E8.06581
G1 X109.932 Y99.571 E8.10669
G1 X110.645 Y99.869 E8.17696
G1 X110.645 Y100.129 E8.2006
G1 X110.259 Y100.315 E8.23956
G1 X109.616 Y100.497 E8.30032
G1 X109.17 Y100.52 E8.34093
G1 X108.77 Y100.64 E8.3789
G1 X108.566 Y100.786 E8.40171
G1 X108.366 Y101.088 E8.43465
G1 X108.301 Y101.58 E8.47978
G1 X108.382 Y101.881 E8.50812
G1 X108.497 Y102.054 E8.52701
G1 X108.759 Y102.276 E8.55824
G1 X109.214 Y102.458 E8.6028
G1 X109.578 Y102.66 E8.64065
G1 X110.164 Y103.165 E8.71099
G1 X110.084 Y103.412 E8.7346
G1 X109.66 Y103.467 E8.77348
G1 X108.932 Y103.438 E8.83973
G1 X108.267 Y103.298 E8.90152
G1 X107.805 Y103.453 E8.94583
G1 X107.514 Y103.772 E8.98509
G1 X107.384 Y104.214 E9.02698
G1 X107.481 Y104.657 E9.06822
G1 X107.612 Y104.851 E9.08951
G1 X107.975 Y105.163 E9.13303
G1 X108.288 Y105.491 E9.17426
G1 X108.689 Y106.151 E9.24448
G1 X108.536 Y106.361 E9.26811
G1 X108.115 Y106.285 E9.30701
G1 X107.487 Y106.055 E9.36782
G1 X107.114 Y105.814 E9.4082
G1 X106.813 Y105.685 E9.43798
G1 X106.525 Y105.665 E9.46423
G1 X106.226 Y105.746 E9.4924
G1 X105.971 Y105.916 E9.52027
G1 X105.752 Y106.207 E9.55339
G1 X105.662 Y106.592 E9.58934
G1 X105.729 Y106.941 E9.62165
G1 X106.02 Y107.414 E9.67215
G1 X106.185 Y107.782 E9.70882
G1 X106.363 Y108.535 E9.77918
G1 X106.152 Y108.687 E9.80283
G1 X105.777 Y108.483 E9.84165
G1 X105.199 Y108.024 E9.90876
G1 X104.697 Y107.494 E9.97514
G1 X104.291 Y107.382 E10.01344
G1 X103.857 Y107.47 E10.05371
G1 X103.482 Y107.765 E10.09709
G1 X103.315 Y108.165 E10.1365
G1 X103.307 Y108.399 E10.15779
G1 X103.417 Y108.865 E10.20133
G1 X103.478 Y109.313 E10.24244
G1 X103.414 Y110.083 E10.3127
G1 X103.167 Y110.163 E10.33631
G1 X102.871 Y109.855 E10.37515
G1 X102.498 Y109.299 E10.43603
G1 X102.324 Y108.845 E10.48024
G1 X102.1 Y108.531 E10.51531
G1 X101.695 Y108.313 E10.55713
G1 X101.23 Y108.322 E10.59942
G1 X100.878 Y108.489 E10.63485
G1 X100.622 Y108.801 E10.67155
G1 X100.551 Y109.003 E10.69102
G1 X100.511 Y109.49 E10.73545
G1 X100.429 Y109.932 E10.77633
G1 X100.131 Y110.645 E10.8466
G1 X99.871 Y110.645 E10.87024
G1 X99.685 Y110.259 E10.9092
G1 X99.503 Y109.616 E10.96996
G1 X99.48 Y109.17 E11.01057
G1 X99.34 Y108.723 E11.05316
G1 X99.087 Y108.465 E11.08602
G1 X98.672 Y108.303 E11.12653
G1 X98.378 Y108.301 E11.15326
G1 X98.119 Y108.382 E11.17794
G1 X97.946 Y108.497 E11.19683
G1 X97.724 Y108.759 E11.22806
G1 X97.542 Y109.214 E11.27262
G1 X97.34 Y109.578 E11.31047
G1 X96.835 Y110.164 E11.38081
G1 X96.588 Y110.084 E11.40442
G1 X96.533 Y109.66 E11.4433
G1 X96.562 Y108.932 E11.50955
G1 X96.702 Y108.267 E11.57134
G1 X96.547 Y107.805 E11.61565
G1 X96.224 Y107.512 E11.6553
G1 X95.786 Y107.384 E11.69679
G1 X95.343 Y107.481 E11.73803
G1 X95.149 Y107.612 E11.75932
G1 X94.837 Y107.975 E11.80284
G1 X94.509 Y108.288 E11.84407
G1 X93.849 Y108.689 E11.91429
G1 X93.639 Y108.536 E11.93792
G1 X93.715 Y108.115 E11.97682
G1 X93.945 Y107.487 E12.03763
G1 X94.186 Y107.114 E12.07801
G1 X94.315 Y106.813 E12.10779
G1 X94.335 Y106.525 E12.13404
G1 X94.254 Y106.226 E12.16221
G1 X94.084 Y105.971 E12.19008
G1 X93.793 Y105.752 E12.2232
G1 X93.408 Y105.662 E12.25915
G1 X93.059 Y105.729 E12.29146
G1 X92.586 Y106.02 E12.34196
G1 X92.218 Y106.185 E12.37863
G1 X91.465 Y106.363 E12.44899
G1 X91.313 Y106.152 E12.47264
G1 X91.517 Y105.777 E12.51146
G1 X91.976 Y105.199 E12.57857
G1 X92.506 Y104.697 E12.64495
G1 X92.618 Y104.291 E12.68325
G1 X92.53 Y103.857 E12.72352
G1 X92.235 Y103.482 E12.7669
G1 X91.835 Y103.315 E12.80631
G1 X91.601 Y103.307 E12.8276
G1 X91.135 Y103.417 E12.87114
G1 X90.687 Y103.478 E12.91225
G1 X89.917 Y103.414 E12.98251
G1 X89.837 Y103.167 E13.00612
G1 X90.145 Y102.871 E13.04496
G1 X90.701 Y102.498 E13.10584
G1 X91.155 Y102.324 E13.15005
G1 X91.469 Y102.1 E13.18512
G1 X91.687 Y101.695 E13.22694
G1 X91.678 Y101.23 E13.26923
G1 X91.511 Y100.878 E13.30466
G1 X91.199 Y100.622 E13.34136
G1 X90.997 Y100.551 E13.36083
G1 X90.51 Y100.511 E13.40526
G1 X90.068 Y100.429 E13.44614
G1 X89.355 Y100.131 E13.51641
G1 X89.355 Y99.871 E13.54005
G1 X89.741 Y99.685 E13.57901
G1 X90.384 Y99.503 E13.63977
G1 X90.83 Y99.48 E13.68038
G1 X91.231 Y99.36 E13.71844
G1 X91.434 Y99.214 E13.74118
G1 X91.634 Y98.912 E13.77412
G1 X91.699 Y98.42 E13.81925
G1 X91.618 Y98.119 E13.84759
G1 X91.503 Y97.946 E13.86648
G1 X91.241 Y97.724 E13.89771
G1 X90.786 Y97.542 E13.94227
G1 X90.422 Y97.34 E13.98012
G1 X89.836 Y96.835 E14.05046
G1 X89.916 Y96.588 E14.07407
G1 X90.34 Y96.533 E14.11295
G1 X91.068 Y96.562 E14.1792
G1 X91.733 Y96.702 E14.24099
G1 X92.195 Y96.547 E14.2853
G1 X92.486 Y96.228 E14.32456
G1 X92.616 Y95.786 E14.36645
G1 X92.519 Y95.343 E14.40769
G1 X92.388 Y95.149 E14.42898
G1 X92.025 Y94.837 E14.4725
G1 X91.712 Y94.509 E14.51373
G1 X91.311 Y93.849 E14.58395
G1 X91.464 Y93.639 E14.60758
G1 X91.885 Y93.715 E14.64648
G1 X92.513 Y93.945 E14.70729
G1 X92.886 Y94.186 E14.74767
G1 X93.187 Y94.315 E14.77745
G1 X93.475 Y94.335 E14.8037
G1 X93.774 Y94.254 E14.83187
G1 X94.029 Y94.084 E14.85974
G1 X94.248 Y93.793 E14.89286
G1 X94.338 Y93.408 E14.92881
G1 X94.271 Y93.059 E14.96112
G1 X93.98 Y92.586 E15.01162
G1 X93.815 Y92.218 E15.04829
G1 X93.637 Y91.465 E15.11865
G1 X93.848 Y91.313 E15.1423
G1 X94.223 Y91.517 E15.18112
G1 X94.801 Y91.976 E15.24823
G1 X95.303 Y92.506 E15.31461
G1 X95.709 Y92.618 E15.35291
G1 X96.143 Y92.53 E15.39318
G1 X96.518 Y92.235 E15.43656
G1 X96.685 Y91.835 E15.47597
G1 X96.693 Y91.601 E15.49726
G1 X96.583 Y91.135 E15.5408
G1 X96.522 Y90.687 E15.58191
G1 X96.586 Y89.917 E15.65217
G1 X96.833 Y89.837 E15.67578
G1 X97.129 Y90.145 E15.71462
G1 X97.502 Y90.701 E15.7755
G1 X97.676 Y91.155 E15.81971
G1 X97.9 Y91.469 E15.85478
G1 X98.305 Y91.687 E15.8966
G1 X98.77 Y91.678 E15.93889
G1 X99.122 Y91.511 E15.97432
G1 X99.378 Y91.199 E16.01102
G1 X99.449 Y90.997 E16.03049
G1 X99.489 Y90.51 E16.07492
G1 X99.571 Y90.068 E16.1158
G1 X99.869 Y89.355 E16.18607
G1 X100.126 Y89.355 E16.20944
G1 X100.315 Y89.743 E16.24868
G1 X100.497 Y90.384 E16.30927
G1 X100.52 Y90.83 E16.34988
G1 X100.64 Y91.23 E16.38785
G1 X100.786 Y91.434 E16.41066
G1 X101.088 Y91.634 E16.4436
G1 X101.58 Y91.699 E16.48873
G1 X101.881 Y91.618 E16.51707
G1 X102.054 Y91.503 E16.53596
G1 X102.276 Y91.241 E16.56719
G1 X102.458 Y90.786 E16.61175
G1 X102.66 Y90.422 E16.6496
G1 X103.165 Y89.836 E16.71994
G1 X103.412 Y89.916 E16.74355
G1 X103.467 Y90.34 E16.78243
G1 X103.438 Y91.068 E16.84868
G1 X103.298 Y91.733 E16.91047
G1 X103.453 Y92.195 E16.95478
G1 X103.772 Y92.486 E16.99404
G1 X104.214 Y92.616 E17.03593
G1 X104.657 Y92.519 E17.07717
G1 X104.851 Y92.388 E17.09846
G1 X105.163 Y92.025 E17.14198
G1 X105.491 Y91.712 E17.18321
G1 X106.151 Y91.311 E17.25343
G1 X106.361 Y91.464 E17.27706
G1 X106.285 Y91.885 E17.31596
G1 X106.055 Y92.513 E17.37677
G1 X105.814 Y92.886 E17.41715
G1 X105.685 Y93.187 E17.44693
G1 X105.665 Y93.475 E17.47318
G1 X105.746 Y93.774 E17.50135
G1 X105.916 Y94.029 E17.52922
G1 X106.207 Y94.248 E17.56234
G1 X106.592 Y94.338 E17.59829
G1 X106.941 Y94.271 E17.6306
G1 X107.414 Y93.98 E17.6811
G1 X107.782 Y93.815 E17.71777
G1 X108.535 Y93.637 E17.78813
